dist/icons/social/youtube.svg

<svg viewBox="0 0 30 30" xmlns="http://www.w3.org/2000/svg">
<path d="M28.5171 5.62218C28.1938 4.21902 27.2444 3.11781 26.0385 2.74482C23.8524 2.06396 15.0875 2.06396 15.0875 2.06396C15.0875 2.06396 6.32263 2.06396 4.13654 2.74482C2.9306 3.11781 1.98124 4.21902 1.65795 5.62218C1.07294 8.16207 1.07294 13.455 1.07294 13.455C1.07294 13.455 1.07294 18.7479 1.65795 21.2878C1.98124 22.691 2.9306 23.7448 4.13654 24.1178C6.32263 24.7987 15.0875 24.7987 15.0875 24.7987C15.0875 24.7987 23.8524 24.7987 26.0385 24.1178C27.2444 23.7448 28.1938 22.685 28.5171 21.2878C29.1021 18.7479 29.1021 13.455 29.1021 13.455C29.1021 13.455 29.1021 8.16207 28.5171 5.62218ZM12.2241 18.2624V8.64755L19.5469 13.455L12.2241 18.2624Z"/>
</svg>

<svg viewBox="0 0 30 30" xmlns="http://www.w3.org/2000/svg"><path d="M28.517 5.622c-.323-1.403-1.273-2.504-2.479-2.877-2.186-.681-10.95-.681-10.95-.681s-8.765 0-10.951.68C2.93 3.119 1.98 4.22 1.658 5.623c-.585 2.54-.585 7.833-.585 7.833s0 5.293.585 7.833c.323 1.403 1.273 2.457 2.479 2.83 2.186.68 10.95.68 10.95.68s8.765 0 10.951-.68c1.206-.373 2.156-1.433 2.48-2.83.584-2.54.584-7.833.584-7.833s0-5.293-.585-7.833zm-16.293 12.64V8.648l7.323 4.807-7.323 4.807z"/></svg>
